X: 12056
T: Erwan's Kitchen
R: jig
M: 6/8
K: Bminor
|:Bcd eBe|fee efg|a2g fed|Bgf edc|
Bcd eBe|fed efg|a2g fed|1 Bgf e2B:|2 Bgf efg||
|:a2g fed|Bgf edc|Bcd eBe|fed efg|
a2g fed|Bgf edc|Bcd efg|1 fed efg:|2 fed ez2||

